X:1
T:Title
%%score 1 2 3
L:1/8
M:2/2
K:C
V:1 treble-8 nm="Part_1"
V:2 treble-8 nm="Part_2"
V:3 bass nm="Part_3"
V:1
 A6 B2 | c2 d2 e e/4f/4g/4e/4^f f/4g/4a/4f/4 | ^g2 a4 g2 | a4 z4 | z8 | z c/B/AA z d/c/BB | %6
w: E- go|i- xi Do- * * * * * * * * *|* * mi-|ne||mise- * re- re mise- * re- re|
 z e/d<cd/ B c2 B | c4 z4 | z2 z e/f/ g/g/e/f/ g/g/e/e/ | dc d2 e4 | g4 e4 | z2 ^f3 f g2 | e4 d4 | %13
w: mise- * re- re me- * *|i|mi- se- re- re mi- se- re- re mi- se-|e- re me- i|sa- na|a- ni- mam|e- am|
 c4 ^c4 | d4 d4 | ^d4 e2 z/ e/=d/e/ | ^f2 g/d/c/d/ e =f2 e | f3 c f>e d2 | z dg>f e4 | %19
w: qui- *|a qui|* a pec- ca- vi|ti- bi pec- ca- vi ti- * *|bi con- ver- te- re|con- ver- te re|
 ^f2 g2 f3 f | g2 ^f4 f2 | ^f4 g2 g=f | e>e e2 ^f g2 f | g4 z4 | z4 z g2 e- | e a2 ^f g>=fe d/c/ | %26
w: Do- * * mi-|ne us- que|quo et de- pre-|ca- bi- lis e- * *|sto|su- per|* ser- vos tu- * * * *|
[M:3/2] d2 c2 z4 z4 |[M:2/2] z8 | z8 | z8 |[M:4/2] z4 z2 e4 e4 e2 |[M:2/2] e2 e2 ^f3 f | g4 e2 d2 | %33
w: * os||||fi- at mi-|se- ri- cor- di-|a tu- a|
 c3 c B4 | ^c2 d2 e3 g | e>d ^c4 c2 | ^c3 c d2 A2 | B4 z Gc>B | AAd>c BB c2 | %39
w: Do- mi- ne|su- per nos quem-|ad- mo- dum spe-|a- vi- mus in|te spe- ra- vi-|mus spe- ra- vi- mus in te|
[M:5/2] z2 d2 e3 e e2 a2 ^g8 |] %40
w: spe- ra- vi- mus in- te|
V:2
 z4 A4- | A2 B2 c2 d2 | e>dc B/A/ B3 B | Ac/B/AA z d/c/BB | z e/d<cd/ B c2 B | c2 z2 z4 | z8 | %7
w: E-|* go di- xi|Do\-- * * * * * mi-|ne mise- * re- re mise- * re- re|mise- * re- re me- * *|i||
 z e/f/ g/g/e/f/ g/g/e/e/dc | d2 ec/d/ e/e/c/d/ e/e/c/c/ | B c2 B c4 | z4 g4 | e2 d3 d B2 | c4 B4 | %13
w: mise- * re- re mise- * re- re mise- * re- re|me- i mi- se- re- re mi- se- re re mi- se-|re- e me- i|Sa-|na a- ni- mam|me- am|
 z8 | z8 | z4 z/ B/A/B/ ^c2 | d/A/G/A/ B2 c3 G | c>B A2 z Ad>c | B2 z B e>d ^c2 | ^d2 e4 d2 | %20
w: ||pec- ca- vi ti-|bi- pec- ca- vi ti- bi con-|ver- te- re con- ver- te-|re con- ver- te- re|Do\-- * mi-|
 e2 ^d4 d2 | ^d4 e2 e=d | ^c>c c2 d =c/B/ A2 | G g2 e2 a2 ^f | g>fe d/c/ d2 c2 | z8 | %26
w: ne us- que|quo et de- pre-|ca- bi- lis e- * * *|sto su- per ser- vos|tu- * * * * * os||
[M:3/2] z2 e4 e4 e2 |[M:2/2] e2 e2 ^f3 f | g4 e2 d2 | c3 c B4 |[M:4/2] ^c2 d2 e3 g e>d c4 c2 | %31
w: fi- at mi-|se- ri- cor- di-|a tu- a|Do- mi- ne|su- per nos quem- ad- mo- dum spe-|
[M:2/2] ^c3 c d2 A2 | B4 z4 | z8 | z8 | z8 | z8 | z2 d2 g>fee | a>g^ff g4 | %39
w: ra- vi- mus in|te|||||spe- ra- vi- mus spe-|ra- vi- mus in te|
[M:5/2] z2 f2 e3 B c2 d2 e8 |] %40
w: spe- ra- vi- mus in te|
V:3
 A,,4 A,,4 | A,,2 B,,2 C,2 D,2 | E,8 | A,,2 D,D,/C,/ B,,2 E,E,/D,/ | C,>B,,A,,A,, G,,4 | %5
 C,2 D,D,/B,,/ B,,2 E,E,/D,/ | C,>B,,A,,A,, G,,4 | C,4 C,2 G,,A,, | G,,2 C,2 C,4 | %9
 G,,A,, G,,2 C,4 | G,,4 C,4 | C,2 D,3 D, G,,2 | C,4 G,,4 | C,4 A,,4 | D,4 G,,4 | B,,4 E,2 A,,2 | %16
 D,2 G,,2 C,4 | F,,4 F,,F,,_B,,>A,, | G,,3 G,, C,>B,, A,,2 | B,,8 | E,2 B,,4 B,,2 | B,,4 E,2 C,D, | %22
 A,,>A,, A,,2 D,4 | G,,2 C,2 A,,2 D,2 | G,,2 C,B,,/A,,/ G,,2 C,2 | A,,2 D,2 G,,2 C,B,,/A,,/ | %26
[M:3/2] G,,2 C,4 A,,4 A,,2 |[M:2/2] A,,2 A,,2 D,3 D, | G,,4 C,2 G,,2 | A,,3 A,, E,4 | %30
[M:4/2] A,,2 G,,2 C,2 C,4 A,,4 A,,2 |[M:2/2] A,,2 A,,2 D,3 D, | G,,4 C,2 G,,2 | A,,3 A,, E,4 | %34
 A,,2 G,,2 C,3 C, | C,>B,, A,,4 A,,2 | A,,3 A,, D,4 | G,,2 G,2 C,2 C,C, | F,>E, D,2 G,,2 C,2 | %39
[M:5/2] z2 D,2 A,3 ^G, A,2 F,2 E,8 |] %40

